assets/images/icons/cart.svg

<svg width="18" height="17" viewBox="0 0 18 17" fill="none" xmlns="http://www.w3.org/2000/svg">
<path fill-rule="evenodd" clip-rule="evenodd" d="M1.17459 0.5C0.73029 0.5 0.370117 0.860173 0.370117 1.30447C0.370117 1.74877 0.73029 2.10894 1.17459 2.10894H3.37551L3.95539 5.00618C3.95884 5.02803 3.96316 5.04959 3.96833 5.07082L5.16229 11.0362C5.26456 11.5503 5.54446 12.0128 5.95284 12.3415C6.35916 12.6686 6.86702 12.8432 7.38839 12.8352H14.3253C14.8466 12.8432 15.3545 12.6686 15.7608 12.3415C16.1693 12.0127 16.4492 11.5506 16.5514 11.0362L16.5525 11.0301L17.6967 5.03059C17.7416 4.79508 17.6791 4.55181 17.5263 4.36708C17.3734 4.18236 17.1462 4.07542 16.9064 4.07542H5.40995L4.82375 1.14659C4.74849 0.770612 4.41835 0.5 4.03492 0.5H1.17459ZM5.73198 5.68436H15.934L14.9728 10.7252C14.9437 10.8682 14.8656 10.9967 14.7519 11.0882C14.6375 11.1803 14.4944 11.2292 14.3475 11.2264L14.3321 11.2263H7.38151L7.3661 11.2264C7.21928 11.2292 7.07615 11.1803 6.96176 11.0882C6.84737 10.9961 6.76901 10.8668 6.7404 10.7227L5.73198 5.68436Z" fill="#222222"/>
<path d="M5.64386 15.4274C5.64386 14.835 6.12409 14.3547 6.71649 14.3547C7.30888 14.3547 7.78911 14.835 7.78911 15.4274C7.78911 16.0198 7.30888 16.5 6.71649 16.5C6.12409 16.5 5.64386 16.0198 5.64386 15.4274Z" fill="#222222"/>
<path d="M13.5098 15.4274C13.5098 14.835 13.99 14.3547 14.5824 14.3547C15.1748 14.3547 15.655 14.835 15.655 15.4274C15.655 16.0198 15.1748 16.5 14.5824 16.5C13.99 16.5 13.5098 16.0198 13.5098 15.4274Z" fill="#222222"/>
</svg>

<svg width="18" height="17" fill="none" xmlns="http://www.w3.org/2000/svg"><path fill-rule="evenodd" clip-rule="evenodd" d="M1.175.5a.804.804 0 1 0 0 1.609h2.2l.58 2.897a.801.801 0 0 0 .013.065l1.194 5.965a2.236 2.236 0 0 0 2.226 1.8h6.937a2.235 2.235 0 0 0 2.226-1.8l.002-.006 1.144-6a.805.805 0 0 0-.79-.955H5.41l-.586-2.928A.804.804 0 0 0 4.034.5h-2.86zm4.557 5.184h10.202l-.961 5.041a.626.626 0 0 1-.626.501H7.367a.626.626 0 0 1-.626-.503L5.732 5.684z" fill="#222"/><path d="M5.644 15.427a1.073 1.073 0 1 1 2.145 0 1.073 1.073 0 0 1-2.145 0zm7.866 0a1.073 1.073 0 1 1 2.145 0 1.073 1.073 0 0 1-2.145 0z" fill="#222"/></svg>
